exports/world-population-in-extreme-poverty-absolute_v2_850x600.svg

<svg xmlns="http://www.w3.org/2000/svg" version="1.1" style="background-color:#fff;-webkit-font-smoothing:antialiased" width="850" height="600" font-family="'Helvetica Neue',Helvetica,Arial,sans-serif" font-size="18" text-rendering="optimizeLegibility"><g class="ChartTab"><g class="HeaderView"><g opacity=".8" transform="matrix(.27 0 0 .27 778 15)"><a xmlns:xlink="http://www.w3.org/1999/xlink" xlink:href="https://ourworldindata.org" target="_blank"><g><path fill="#1B2543" d="M0 0h211.2v130.1H0z"/><path fill="#E63912" d="M0 112.2h211.2v17.9H0z"/><g><path fill="none" d="M1.2 12.3h210.2v99.2H1.2z"/><path fill="#FFF" d="M37.8 32.2c0 12.7-7.7 19.4-17.1 19.4-9.7 0-16.6-7.5-16.6-18.7 0-11.7 7.3-19.3 17.1-19.3 10.1.1 16.6 7.7 16.6 18.6zm-28.6.6c0 7.9 4.3 14.9 11.8 14.9 7.5 0 11.8-6.9 11.8-15.3 0-7.3-3.8-14.9-11.8-14.9-7.9 0-11.8 7.3-11.8 15.3zM62.7 43.8c0 2.7.1 5.1.2 7.2h-4.3l-.3-4.3h-.1c-1.3 2.1-4 4.9-8.8 4.9-4.2 0-9.1-2.3-9.1-11.6V24.6h4.8v14.6c0 5 1.5 8.4 5.9 8.4 3.2 0 5.5-2.2 6.3-4.4.3-.7.4-1.6.4-2.5V24.6h4.8v19.2zM67.3 32.8c0-3.1-.1-5.8-.2-8.2h4.2l.2 5.2h.2c1.2-3.5 4.1-5.8 7.3-5.8.5 0 .9.1 1.4.2v4.5c-.5-.1-1-.2-1.6-.2-3.4 0-5.8 2.6-6.5 6.2-.1.7-.2 1.4-.2 2.2V51h-4.8V32.8zM95.4 51L86 14.2h5l4.4 18.6c1.1 4.6 2.1 9.2 2.7 12.7h.1c.6-3.7 1.8-8 3-12.8l4.9-18.5h5l4.5 18.7c1 4.4 2 8.7 2.6 12.6h.1c.8-4 1.8-8.1 3-12.7l4.9-18.5h4.9L120.6 51h-5L111 31.9c-1.1-4.7-1.9-8.3-2.4-12h-.1c-.7 3.7-1.5 7.3-2.8 12L100.4 51h-5zM154.9 37.6c0 9.8-6.8 14-13.2 14-7.2 0-12.7-5.2-12.7-13.6 0-8.8 5.8-14 13.1-14 7.7 0 12.8 5.5 12.8 13.6zm-21 .3c0 5.8 3.3 10.1 8 10.1 4.6 0 8-4.3 8-10.3 0-4.5-2.2-10.1-7.9-10.1s-8.1 5.2-8.1 10.3zM158.2 32.8c0-3.1-.1-5.8-.2-8.2h4.2l.2 5.2h.2c1.2-3.5 4.1-5.8 7.3-5.8.5 0 .9.1 1.4.2v4.5c-.5-.1-1-.2-1.6-.2-3.4 0-5.8 2.6-6.5 6.2-.1.7-.2 1.4-.2 2.2V51h-4.8V32.8zM173.5 12.3h4.8V51h-4.8V12.3zM206.5 12.3v31.9c0 2.3.1 5 .2 6.8h-4.3l-.2-4.6h-.2c-1.5 2.9-4.7 5.2-9 5.2-6.4 0-11.3-5.4-11.3-13.4-.1-8.8 5.4-14.2 11.9-14.2 4 0 6.8 1.9 8 4h.1V12.3h4.8zm-4.8 23.1c0-.6-.1-1.4-.2-2a7 7 0 00-6.9-5.6c-5 0-7.9 4.4-7.9 10.2 0 5.3 2.6 9.8 7.8 9.8 3.2 0 6.2-2.1 7.1-5.7.2-.7.2-1.3.2-2.1v-4.6zM42.8 64c.1 1.6-1.1 2.9-3.1 2.9-1.7 0-2.9-1.3-2.9-2.9 0-1.7 1.3-3 3-3 1.9 0 3 1.3 3 3zm-5.4 33.8V71.4h4.8v26.4h-4.8zM47.5 78.6c0-2.7-.1-5-.2-7.1h4.3l.3 4.4h.1c1.3-2.5 4.4-5 8.8-5 3.7 0 9.4 2.2 9.4 11.2v15.8h-4.8V82.6c0-4.3-1.6-7.8-6.1-7.8-3.2 0-5.6 2.2-6.5 4.9-.2.6-.3 1.4-.3 2.2v15.9h-4.8V78.6zM84 61.6c2.9-.4 6.3-.8 10.1-.8 6.8 0 11.7 1.6 14.9 4.6 3.3 3 5.2 7.3 5.2 13.2 0 6-1.9 10.9-5.3 14.3-3.4 3.4-9.1 5.3-16.3 5.3-3.4 0-6.2-.2-8.6-.4V61.6zm4.8 32.5c1.2.2 3 .3 4.8.3 10.2 0 15.7-5.7 15.7-15.6.1-8.7-4.9-14.2-14.9-14.2-2.5 0-4.3.2-5.6.5v29zM132.1 97.8l-.4-3.3h-.2a9.79 9.79 0 01-8.1 3.9c-5.4 0-8.1-3.8-8.1-7.6 0-6.4 5.7-9.9 15.9-9.8v-.5c0-2.2-.6-6.1-6-6.1-2.5 0-5 .8-6.9 2l-1.1-3.2c2.2-1.4 5.4-2.3 8.7-2.3 8.1 0 10.1 5.5 10.1 10.8v9.9c0 2.3.1 4.5.4 6.3h-4.3zm-.7-13.4c-5.3-.1-11.2.8-11.2 5.9 0 3.1 2.1 4.6 4.5 4.6 3.4 0 5.6-2.2 6.4-4.4.2-.5.3-1 .3-1.5v-4.6zM146.6 63.9v7.6h6.9v3.7h-6.9v14.2c0 3.3.9 5.1 3.6 5.1 1.3 0 2.2-.2 2.8-.3l.2 3.6c-.9.4-2.4.7-4.3.7-2.2 0-4-.7-5.2-2-1.4-1.4-1.9-3.8-1.9-6.9V75.1h-4.1v-3.7h4.1v-6.3l4.8-1.2zM171.4 97.8l-.4-3.3h-.2a9.79 9.79 0 01-8.1 3.9c-5.4 0-8.1-3.8-8.1-7.6 0-6.4 5.7-9.9 15.9-9.8v-.5c0-2.2-.6-6.1-6-6.1-2.5 0-5 .8-6.9 2l-1.1-3.2c2.2-1.4 5.4-2.3 8.7-2.3 8.1 0 10.1 5.5 10.1 10.8v9.9c0 2.3.1 4.5.4 6.3h-4.3zm-.7-13.4c-5.3-.1-11.2.8-11.2 5.9 0 3.1 2.1 4.6 4.5 4.6 3.4 0 5.6-2.2 6.4-4.4.2-.5.3-1 .3-1.5v-4.6z"/></g></g></a></g><a href="https://ourworldindata.org/grapher/world-population-in-extreme-poverty-absolute" target="_blank"><text font-size="25.2" x="15" y="35.2" fill="#555"><tspan x="15" y="35.16">World population living in extreme poverty, 1820-2015</tspan></text></a><text font-size="14.4" x="15" y="53.7" fill="#666"><tspan x="15" y="53.72">Extreme poverty is defined as living at a consumption (or income) level below 1.90 &quot;international $&quot; per day.</tspan><tspan x="15" y="69.56">International $ are adjusted for price differences between countries and for price changes over time (inflation).</tspan></text></g><g class="StackedArea"><defs><clipPath id="a"><path d="M75.08 0h820v928.8h-820z"/></clipPath></defs><g class="AxisBoxView"><g class="HorizontalAxis" fill="#666" text-anchor="middle" font-size="16.2"><text x="75.1" y="556.5">1820</text><text x="170" y="556.5">1850</text><text x="328.3" y="556.5">1900</text><text x="486.5" y="556.5">1950</text><text x="644.8" y="556.5">2000</text><text x="692.3" y="556.5">2015</text></g><g class="VerticalAxis" fill="#666" dominant-baseline="middle" text-anchor="end" font-size="16.2"><text x="70.08" y="535.3">0</text><text x="70.08" y="475">1 billion</text><text x="70.08" y="414.7">2 billion</text><text x="70.08" y="354.4">3 billion</text><text x="70.08" y="294.1">4 billion</text><text x="70.08" y="233.8">5 billion</text><text x="70.08" y="173.5">6 billion</text><text x="70.08" y="113.2">7 billion</text></g><g class="AxisGridLines"><path stroke="#ccc" d="M75.08 535.3h617.19"/><path stroke="#ddd" stroke-dasharray="3,2" d="M75.08 475h617.19M75.08 414.7h617.19M75.08 354.4h617.19M75.08 294.1h617.19M75.08 233.8h617.19M75.08 173.5h617.19M75.08 113.2h617.19"/></g></g><g clip-path="url(#a)"><g class="HeightedLegend clickable"><g class="legendMark"><text font-size="13.5" x="697.3" y="281.8" fill="#34983f"><tspan x="697.27" y="281.85">Number of people</tspan><tspan x="697.27" y="296.7">not in extreme</tspan><tspan x="697.27" y="311.55">poverty</tspan></text></g><g class="legendMark"><text font-size="13.5" x="697.3" y="503.4" fill="#ca2628"><tspan x="697.27" y="503.45">Number of people</tspan><tspan x="697.27" y="518.3">living in extreme</tspan><tspan x="697.27" y="533.15">poverty</tspan></text></g></g><g class="Areas"><path class="World_1-area" d="M75.1 473.7l94.9-8.8 63.3-5.2 63.3-4.9 63.3-6.5 60.2-6.6 66.4-15.7 31.7-8 31.6-16.5 34.9 14 9.5 2.4 9.4 5.2 9.5-6 9.5 1.3 9.5 12.5 9.5-1.7 9.5 6.5 9.5 17.4 9.5 6.1 6.3 8.1 3.2 8.3 3.2 5.2 9.5 12-.03 42.5H75.08" fill="#ca2628" fill-opacity=".7"/><path class="World_0-area" d="M75.1 470l94.9-10.8 63.3-8.3 63.3-9.5 63.3-11.6 60.2-17.8 66.4-28.7 31.7-30.5 31.6-40.1 34.9-49.9 9.5-14.9 9.4-16.2 9.5-16.6 9.5-15.7 9.5-14.8 9.5-14.1 9.5-14 9.5-14.4 9.5-14.7 6.3-10 3.2-5 3.2-5.1 9.5-15.2v400.7l-9.5-12-3.2-5.2-3.2-8.3-6.3-8.1-9.5-6.1-9.5-17.4-9.5-6.5-9.5 1.7-9.5-12.5-9.5-1.3-9.5 6-9.4-5.2-9.5-2.4-34.9-14-31.6 16.5-31.7 8-66.4 15.7-60.2 6.6-63.3 6.5-63.3 4.9-63.3 5.2-94.9 8.8" fill="#34983f" fill-opacity=".7"/><path class="World_1-border" stroke-linecap="round" d="M75.1 473.7l94.9-8.8 63.3-5.2 63.3-4.9 63.3-6.5 60.2-6.6 66.4-15.7 31.7-8 31.6-16.5 34.9 14 9.5 2.4 9.4 5.2 9.5-6 9.5 1.3 9.5 12.5 9.5-1.7 9.5 6.5 9.5 17.4 9.5 6.1 6.3 8.1 3.2 8.3 3.2 5.2 9.5 12" stroke="#A92021" stroke-opacity=".7" stroke-width=".5" fill="none"/><path class="World_0-border" stroke-linecap="round" d="M75.1 470l94.9-10.8 63.3-8.3 63.3-9.5 63.3-11.6 60.2-17.8 66.4-28.7 31.7-30.5 31.6-40.1 34.9-49.9 9.5-14.9 9.4-16.2 9.5-16.6 9.5-15.7 9.5-14.8 9.5-14.1 9.5-14 9.5-14.4 9.5-14.7 6.3-10 3.2-5 3.2-5.1 9.5-15.2" stroke="#2C7F35" stroke-opacity=".7" stroke-width=".5" fill="none"/></g></g></g><g class="SourcesFooter" fill="#777"><g class="clickable" fill="#777"><text font-size="12.6" x="15" y="581.6"><tspan x="15" y="581.58">Source: OWID based on World Bank (2016) and Bourguignon and Morrisson (2002)</tspan></text></g><text font-size="12.6" x="550.7" y="581.6"><tspan x="550.74" y="581.58"><a target="_blank" href="https://ourworldindata.org/extreme-poverty/" fill="#777">OurWorldInData.org/extreme-poverty/</a> • <a class="cclogo" href="http://creativecommons.org/licenses/by-sa/4.0/deed.en_US" target="_blank" fill="#777">CC BY-SA</a></tspan></text></g></g></svg>

<svg xmlns="http://www.w3.org/2000/svg" version="1.1" style="font-family:&#x27;Helvetica Neue&#x27;, Helvetica, Arial, sans-serif;font-size:18px;background-color:white;text-rendering:optimizeLegibility;-webkit-font-smoothing:antialiased" width="850" height="600"><g class="ChartTab"><g class="HeaderView"><g opacity="0.8" transform="translate(778, 15) scale(0.27)"><a xmlns:xlink="http://www.w3.org/1999/xlink" xlink:href="https://ourworldindata.org" target="_blank"><g><rect x="0" y="0" fill="#1B2543" width="211.2" height="130.1"/><rect x="0" y="112.2" fill="#E63912" width="211.2" height="17.9"/><g><rect x="1.2" y="12.3" fill="none" width="210.2" height="99.2"/><path fill="#FFFFFF" d="M37.8,32.2c0,12.7-7.7,19.4-17.1,19.4c-9.7,0-16.6-7.5-16.6-18.7c0-11.7,7.3-19.3,17.1-19.3 C31.3,13.7,37.8,21.3,37.8,32.2z M9.2,32.8c0,7.9,4.3,14.9,11.8,14.9c7.5,0,11.8-6.9,11.8-15.3c0-7.3-3.8-14.9-11.8-14.9 C13.1,17.5,9.2,24.8,9.2,32.8z"/><path fill="#FFFFFF" d="M62.7,43.8c0,2.7,0.1,5.1,0.2,7.2h-4.3l-0.3-4.3h-0.1c-1.3,2.1-4,4.9-8.8,4.9c-4.2,0-9.1-2.3-9.1-11.6 V24.6h4.8v14.6c0,5,1.5,8.4,5.9,8.4c3.2,0,5.5-2.2,6.3-4.4c0.3-0.7,0.4-1.6,0.4-2.5V24.6h4.8V43.8z"/><path fill="#FFFFFF" d="M67.3,32.8c0-3.1-0.1-5.8-0.2-8.2h4.2l0.2,5.2h0.2c1.2-3.5,4.1-5.8,7.3-5.8c0.5,0,0.9,0.1,1.4,0.2v4.5 c-0.5-0.1-1-0.2-1.6-0.2c-3.4,0-5.8,2.6-6.5,6.2c-0.1,0.7-0.2,1.4-0.2,2.2V51h-4.8V32.8z"/><path fill="#FFFFFF" d="M95.4,51l-9.4-36.8h5l4.4,18.6c1.1,4.6,2.1,9.2,2.7,12.7h0.1c0.6-3.7,1.8-8,3-12.8l4.9-18.5h5l4.5,18.7 c1,4.4,2,8.7,2.6,12.6h0.1c0.8-4,1.8-8.1,3-12.7l4.9-18.5h4.9L120.6,51h-5L111,31.9c-1.1-4.7-1.9-8.3-2.4-12h-0.1 c-0.7,3.7-1.5,7.3-2.8,12L100.4,51H95.4z"/><path fill="#FFFFFF" d="M154.9,37.6c0,9.8-6.8,14-13.2,14c-7.2,0-12.7-5.2-12.7-13.6c0-8.8,5.8-14,13.1-14 C149.8,24,154.9,29.5,154.9,37.6z M133.9,37.9c0,5.8,3.3,10.1,8,10.1c4.6,0,8-4.3,8-10.3c0-4.5-2.2-10.1-7.9-10.1 C136.3,27.6,133.9,32.8,133.9,37.9z"/><path fill="#FFFFFF" d="M158.2,32.8c0-3.1-0.1-5.8-0.2-8.2h4.2l0.2,5.2h0.2c1.2-3.5,4.1-5.8,7.3-5.8c0.5,0,0.9,0.1,1.4,0.2v4.5 c-0.5-0.1-1-0.2-1.6-0.2c-3.4,0-5.8,2.6-6.5,6.2c-0.1,0.7-0.2,1.4-0.2,2.2V51h-4.8V32.8z"/><path fill="#FFFFFF" d="M173.5,12.3h4.8V51h-4.8V12.3z"/><path fill="#FFFFFF" d="M206.5,12.3v31.9c0,2.3,0.1,5,0.2,6.8h-4.3l-0.2-4.6H202c-1.5,2.9-4.7,5.2-9,5.2 c-6.4,0-11.3-5.4-11.3-13.4c-0.1-8.8,5.4-14.2,11.9-14.2c4,0,6.8,1.9,8,4h0.1V12.3H206.5z M201.7,35.4c0-0.6-0.1-1.4-0.2-2 c-0.7-3.1-3.3-5.6-6.9-5.6c-5,0-7.9,4.4-7.9,10.2c0,5.3,2.6,9.8,7.8,9.8c3.2,0,6.2-2.1,7.1-5.7c0.2-0.7,0.2-1.3,0.2-2.1V35.4z"/><path fill="#FFFFFF" d="M42.8,64c0.1,1.6-1.1,2.9-3.1,2.9c-1.7,0-2.9-1.3-2.9-2.9c0-1.7,1.3-3,3-3C41.7,61,42.8,62.3,42.8,64z M37.4,97.8V71.4h4.8v26.4H37.4z"/><path fill="#FFFFFF" d="M47.5,78.6c0-2.7-0.1-5-0.2-7.1h4.3l0.3,4.4h0.1c1.3-2.5,4.4-5,8.8-5c3.7,0,9.4,2.2,9.4,11.2v15.8h-4.8 V82.6c0-4.3-1.6-7.8-6.1-7.8c-3.2,0-5.6,2.2-6.5,4.9c-0.2,0.6-0.3,1.4-0.3,2.2v15.9h-4.8V78.6z"/><path fill="#FFFFFF" d="M84,61.6c2.9-0.4,6.3-0.8,10.1-0.8c6.8,0,11.7,1.6,14.9,4.6c3.3,3,5.2,7.3,5.2,13.2c0,6-1.9,10.9-5.3,14.3 c-3.4,3.4-9.1,5.3-16.3,5.3c-3.4,0-6.2-0.2-8.6-0.4V61.6z M88.8,94.1c1.2,0.2,3,0.3,4.8,0.3c10.2,0,15.7-5.7,15.7-15.6 c0.1-8.7-4.9-14.2-14.9-14.2c-2.5,0-4.3,0.2-5.6,0.5V94.1z"/><path fill="#FFFFFF" d="M132.1,97.8l-0.4-3.3h-0.2c-1.5,2.1-4.3,3.9-8.1,3.9c-5.4,0-8.1-3.8-8.1-7.6c0-6.4,5.7-9.9,15.9-9.8v-0.5 c0-2.2-0.6-6.1-6-6.1c-2.5,0-5,0.8-6.9,2l-1.1-3.2c2.2-1.4,5.4-2.3,8.7-2.3c8.1,0,10.1,5.5,10.1,10.8v9.9c0,2.3,0.1,4.5,0.4,6.3 H132.1z M131.4,84.4c-5.3-0.1-11.2,0.8-11.2,5.9c0,3.1,2.1,4.6,4.5,4.6c3.4,0,5.6-2.2,6.4-4.4c0.2-0.5,0.3-1,0.3-1.5V84.4z"/><path fill="#FFFFFF" d="M146.6,63.9v7.6h6.9v3.7h-6.9v14.2c0,3.3,0.9,5.1,3.6,5.1c1.3,0,2.2-0.2,2.8-0.3l0.2,3.6 c-0.9,0.4-2.4,0.7-4.3,0.7c-2.2,0-4-0.7-5.2-2c-1.4-1.4-1.9-3.8-1.9-6.9V75.1h-4.1v-3.7h4.1v-6.3L146.6,63.9z"/><path fill="#FFFFFF" d="M171.4,97.8l-0.4-3.3h-0.2c-1.5,2.1-4.3,3.9-8.1,3.9c-5.4,0-8.1-3.8-8.1-7.6c0-6.4,5.7-9.9,15.9-9.8v-0.5 c0-2.2-0.6-6.1-6-6.1c-2.5,0-5,0.8-6.9,2l-1.1-3.2c2.2-1.4,5.4-2.3,8.7-2.3c8.1,0,10.1,5.5,10.1,10.8v9.9c0,2.3,0.1,4.5,0.4,6.3 H171.4z M170.7,84.4c-5.3-0.1-11.2,0.8-11.2,5.9c0,3.1,2.1,4.6,4.5,4.6c3.4,0,5.6-2.2,6.4-4.4c0.2-0.5,0.3-1,0.3-1.5V84.4z"/></g></g></a></g><a href="https://ourworldindata.org/grapher/world-population-in-extreme-poverty-absolute" target="_blank"><text font-size="25.20" x="15.0" y="35.2" fill="#555"><tspan x="15" y="35.160000000000004">World population living in extreme poverty, 1820-2015</tspan></text></a><text font-size="14.40" x="15.0" y="53.7" fill="#666"><tspan x="15" y="53.72">Extreme poverty is defined as living at a consumption (or income) level below 1.90 &quot;international $&quot; per day.</tspan><tspan x="15" y="69.56">International $ are adjusted for price differences between countries and for price changes over time (inflation).</tspan></text></g><g class="StackedArea"><defs><clipPath id="boundsClip-5"><rect x="75.08" y="0" width="820" height="928.8"></rect></clipPath></defs><g class="AxisBoxView"><g class="HorizontalAxis"><text x="75.1" y="556.5" fill="#666" text-anchor="middle" font-size="16.2">1820</text><text x="170" y="556.5" fill="#666" text-anchor="middle" font-size="16.2">1850</text><text x="328.3" y="556.5" fill="#666" text-anchor="middle" font-size="16.2">1900</text><text x="486.5" y="556.5" fill="#666" text-anchor="middle" font-size="16.2">1950</text><text x="644.8" y="556.5" fill="#666" text-anchor="middle" font-size="16.2">2000</text><text x="692.3" y="556.5" fill="#666" text-anchor="middle" font-size="16.2">2015</text></g><g class="VerticalAxis"><text x="70.08" y="535.3" fill="#666" dominant-baseline="middle" text-anchor="end" font-size="16.2">0</text><text x="70.08" y="475" fill="#666" dominant-baseline="middle" text-anchor="end" font-size="16.2">1 billion</text><text x="70.08" y="414.7" fill="#666" dominant-baseline="middle" text-anchor="end" font-size="16.2">2 billion</text><text x="70.08" y="354.4" fill="#666" dominant-baseline="middle" text-anchor="end" font-size="16.2">3 billion</text><text x="70.08" y="294.1" fill="#666" dominant-baseline="middle" text-anchor="end" font-size="16.2">4 billion</text><text x="70.08" y="233.8" fill="#666" dominant-baseline="middle" text-anchor="end" font-size="16.2">5 billion</text><text x="70.08" y="173.5" fill="#666" dominant-baseline="middle" text-anchor="end" font-size="16.2">6 billion</text><text x="70.08" y="113.2" fill="#666" dominant-baseline="middle" text-anchor="end" font-size="16.2">7 billion</text></g><g class="AxisGridLines"><line x1="75.08" y1="535.3" x2="692.27" y2="535.3" stroke="#ccc"></line><line x1="75.08" y1="475" x2="692.27" y2="475" stroke="#ddd" stroke-dasharray="3,2"></line><line x1="75.08" y1="414.7" x2="692.27" y2="414.7" stroke="#ddd" stroke-dasharray="3,2"></line><line x1="75.08" y1="354.4" x2="692.27" y2="354.4" stroke="#ddd" stroke-dasharray="3,2"></line><line x1="75.08" y1="294.1" x2="692.27" y2="294.1" stroke="#ddd" stroke-dasharray="3,2"></line><line x1="75.08" y1="233.8" x2="692.27" y2="233.8" stroke="#ddd" stroke-dasharray="3,2"></line><line x1="75.08" y1="173.5" x2="692.27" y2="173.5" stroke="#ddd" stroke-dasharray="3,2"></line><line x1="75.08" y1="113.2" x2="692.27" y2="113.2" stroke="#ddd" stroke-dasharray="3,2"></line></g></g><g clip-path="url(#boundsClip-5)"><g class="HeightedLegend clickable"><g class="legendMark"><rect x="692.27" y="271.04999999999995" width="142.73000000000002" height="42.7" fill="#fff" opacity="0"></rect><text font-size="13.50" x="697.3" y="281.8" fill="#34983f"><tspan x="697.27" y="281.84999999999997">Number of people</tspan><tspan x="697.27" y="296.7">not in extreme</tspan><tspan x="697.27" y="311.54999999999995">poverty</tspan></text></g><g class="legendMark"><rect x="692.27" y="492.65" width="142.73000000000002" height="42.7" fill="#fff" opacity="0"></rect><text font-size="13.50" x="697.3" y="503.4" fill="#ca2628"><tspan x="697.27" y="503.45">Number of people</tspan><tspan x="697.27" y="518.3">living in extreme</tspan><tspan x="697.27" y="533.15">poverty</tspan></text></g></g><g class="Areas"><rect x="75.08" y="92.1" width="617.1899999999999" height="443.19999999999993" opacity="0" fill="rgba(255,255,255,0)"></rect><path class="World_1-area" stroke-linecap="round" d="M75.1 473.7L170 464.9L233.3 459.7L296.6 454.8L359.9 448.3L420.1 441.7L486.5 426L518.2 418L549.8 401.5L584.7 415.5L594.2 417.9L603.6 423.1L613.1 417.1L622.6 418.4L632.1 430.9L641.6 429.2L651.1 435.7L660.6 453.1L670.1 459.2L676.4 467.3L679.6 475.6L682.8 480.8L692.3 492.8L692.27 535.3L75.08 535.3" fill="#ca2628" fill-opacity="0.7"></path><path class="World_0-area" stroke-linecap="round" d="M75.1 470L170 459.2L233.3 450.9L296.6 441.4L359.9 429.8L420.1 412L486.5 383.3L518.2 352.8L549.8 312.7L584.7 262.8L594.2 247.9L603.6 231.7L613.1 215.1L622.6 199.4L632.1 184.6L641.6 170.5L651.1 156.5L660.6 142.1L670.1 127.4L676.4 117.4L679.6 112.4L682.8 107.3L692.3 92.1L692.3 492.8L682.8 480.8L679.6 475.6L676.4 467.3L670.1 459.2L660.6 453.1L651.1 435.7L641.6 429.2L632.1 430.9L622.6 418.4L613.1 417.1L603.6 423.1L594.2 417.9L584.7 415.5L549.8 401.5L518.2 418L486.5 426L420.1 441.7L359.9 448.3L296.6 454.8L233.3 459.7L170 464.9L75.1 473.7" fill="#34983f" fill-opacity="0.7"></path><path class="World_1-border" stroke-linecap="round" d="M75.1 473.7L170 464.9L233.3 459.7L296.6 454.8L359.9 448.3L420.1 441.7L486.5 426L518.2 418L549.8 401.5L584.7 415.5L594.2 417.9L603.6 423.1L613.1 417.1L622.6 418.4L632.1 430.9L641.6 429.2L651.1 435.7L660.6 453.1L670.1 459.2L676.4 467.3L679.6 475.6L682.8 480.8L692.3 492.8" stroke="rgb(169, 32, 33)" stroke-opacity="0.7" stroke-width="0.5" fill="none"></path><path class="World_0-border" stroke-linecap="round" d="M75.1 470L170 459.2L233.3 450.9L296.6 441.4L359.9 429.8L420.1 412L486.5 383.3L518.2 352.8L549.8 312.7L584.7 262.8L594.2 247.9L603.6 231.7L613.1 215.1L622.6 199.4L632.1 184.6L641.6 170.5L651.1 156.5L660.6 142.1L670.1 127.4L676.4 117.4L679.6 112.4L682.8 107.3L692.3 92.1" stroke="rgb(44, 127, 53)" stroke-opacity="0.7" stroke-width="0.5" fill="none"></path></g></g></g><g class="SourcesFooter" style="fill:#777"><g class="clickable" style="fill:#777"><text font-size="12.60" x="15.0" y="581.6"><tspan x="15" y="581.58">Source: OWID based on World Bank (2016) and Bourguignon and Morrisson (2002)</tspan></text></g><text font-size="12.60" x="550.7" y="581.6"><tspan x="550.7439999999999" y="581.58"><a target='_blank' style='fill: #777;' href='https://ourworldindata.org/extreme-poverty/'>OurWorldInData.org/extreme-poverty/</a> • <a style="fill: #777;" class="cclogo" href="http://creativecommons.org/licenses/by-sa/4.0/deed.en_US" target="_blank">CC BY-SA</a></tspan></text></g></g></svg>
